X: 794
T: Xin zhongguo
L: 1/8
M: 2/4
K: F
c> f d3/ c/ [I:setbarnb 1]| 
c FG2 | 
c c/ d/ c F | 
G4 | 
G A d c | 
A G F E | 
D F G3/ A/ | 
c F E D | 
C4 |]

@@@ Tune index: 9668
